!!!COM:	Bach, Johann Sebastian
!!!OMV:	Wie sch&ouml;n leuchtet der Morgenstern
!!!OTL:	Wie sch&ouml;n leuchtet der Morgenstern
**kern	**fb	**kern	**kern	**kern	**kern
*part5	*part5	*part4	*part3	*part2	*part1
*staff5	*	*staff4	*staff3	*staff2	*staff1
*I"Voice	*	*I"Voice	*I"Voice	*I"Voice	*I"Violin
*I'V	*	*I'V	*I'V	*I'V	*I'Vln.
*clefF4	*	*clefGv2	*clefG2	*clefG2	*clefG2
*k[b-]	*	*k[b-]	*k[b-]	*k[b-]	*k[b-]
*M4/4	*	*M4/4	*M4/4	*M4/4	*M4/4
4F	.	4A	4c	4f	4ff
=2	=2	=2	=2	=2	=2
4E	6	4G	4c	8ccL	4gg
.	5	.	.	8b-J	.
8FL	.	8FL	4c	8aL	[4aa
8EJ	.	8GJ	.	8gJ	.
4D	.	8AL	8dL	4f	8aaL]
.	.	8B-J	8eJ	.	8gg
4AA	6	4c	4f	4cc	8ff
.	.	.	.	.	8ee-XJ
=3	=3	=3	=3	=3	=3
8BB-L	9	8c	4f	4dd	8ddL
8CJ	.	16B-LL	.	.	8ee
.	.	16AJJ	.	.	.
8DL	6	8B-L	4f	4dd	8ff
8EJ	.	8B-J	.	.	8ggJ
4F;	.	4A;	4f;	4cc;	4aa;
4E	6	4c	4g	4cc	4gg
=4	=4	=4	=4	=4	=4
4F	6 5	4c	4a	4dd	4ff
4G	6 n	4Bn	4g	4ee	[4ee
8AL	6	8cL	8fL	4ff	8eeL]
8BnJ	6 5	8dJ	8gJ	.	[8dd
8cL	.	8eL	4g	4ee	8dd]
8EJ	.	8GJ	.	.	8ccJ
=5	=5	=5	=5	=5	=5
8FL	6 5	8AL	4f	4dd	8aaL
8DJ	.	8dJ	.	.	8ff
4G	n	4Bn	4f	4dd	8dd
.	.	.	.	.	[8ggJ
4C;	.	4c;	4e;	4cc;	8ggL]
.	.	.	.	.	8ee
4F	.	4c	4f	4a	8cc
.	.	.	.	.	[8ffJ
=6	=6	=6	=6	=6	=6
!!linebreak:original
4BB-	5	8B-L	4f	4dd	8ffL]
.	6	8AJ	.	.	[8gg
4C	5	4G	4e	4cc	8gg]
.	6	.	.	.	8aaJ
8DL	6 5	8dL	8fL	4b-	8b-L
8EJ	6 5	8cJ	8gJ	.	[8cc
8FL	.	4c	4f	4a	8cc]
8BB-J	7 5	.	.	.	8ddJ
=	=	=	=	=	=
2C	4	2c	4f	2g	8gL
.	.	.	.	.	8a
.	3	.	4e	.	8b-
.	.	.	.	.	8ccJ
4FF	.	4c	4f	4f	4a
=7:|!	=7:|!	=7:|!	=7:|!	=7:|!	=7:|!
4r	.	4r	4r	4r	4r
=8	=8	=8	=8	=8	=8
2E	6	2c	2g	2cc	8ccL
.	.	.	.	.	8eeJ
.	.	.	.	.	[4gg
2F	.	2c	2a	2a	8ggL]
.	.	.	.	.	16ffL
.	.	.	.	.	16eeJJ
.	.	.	.	.	[4ff
=9	=9	=9	=9	=9	=9
2E	4	2c	2g	2cc	8ffL]
.	.	.	.	.	16ggL
.	.	.	.	.	16ffJJ
.	3	.	.	.	16eeLL
.	.	.	.	.	16ff
.	.	.	.	.	16dd
.	.	.	.	.	16eeJJ
2FF	.	2c	2f	2a	8ffL
.	.	.	.	.	8gg
.	.	.	.	.	8aa
.	.	.	.	.	8bb-J
=10	=10	=10	=10	=10	=10
8FFL	.	4c	4f	4a	4ccc
8GGJ	.	.	.	.	.
8AAL	6	4c	4f	4a	8ccL
8BB-J	.	.	.	.	8ddJ
8CL	.	4c	8eL	4g	8eeL
8DJ	.	.	8dJ	.	8ffJ
8EL	6	8cL	4c	4g	[4gg
8CJ	.	8B-J	.	.	.
=11	=11	=11	=11	=11	=11
!!pagebreak:original
8FL	.	8AL	4c	4a	8ggL]
8GJ	.	8B-J	.	.	16ffL
.	.	.	.	.	16eeJJ
8AL	6	4c	8cL	4a	16ffLL
.	.	.	.	.	16aa
8B-J	.	.	8dJ	.	16gg
.	.	.	.	.	16ffJJ
8cL	.	4c	4e	4g	8eeL
8B-	.	.	.	.	8dd
8A	7 5	4c	4e	4g	8cc
8GJ	.	.	.	.	8b-J
=12	=12	=12	=12	=12	=12
8FL	.	4c	4f	4a	8aL
8EJ	.	.	.	.	8g
8DL	.	4d	4f	4a	8f
8CJ	.	.	.	.	8eJ
8BB-L	6 5	4d	4f	2g	8d
8GGJ	.	.	.	.	4b-
4C	.	8cL	4e	.	.
.	.	8B-J	.	.	16aLL
.	.	.	.	.	16gJJ
=13	=13	=13	=13	=13	=13
2FF;	.	2A;	2f;	2f;	8aL
.	.	.	.	.	8cc
.	.	.	.	.	8dd
.	.	.	.	.	8eeJ
8DDL	.	8dL	4a	4ff	8ffL
8FFJ	6	8cJ	.	.	8a
8GGL	6	4B-	4g	4ee	8b-
8AAJ	.	.	.	.	8ccJ
=14	=14	=14	=14	=14	=14
4BB-	.	8B-L	4f	4dd	8ddL
.	.	8AJ	.	.	[8bb-
4C	7	4G	4e	4cc	8bb-]
.	6	.	.	.	[8aaJ
8DL	6 5	8FL	4d	4b-	8aaL]
8EJ	6 5	8GJ	.	.	[8gg
8FL	9	8AL	4c	4a	8gg]
8AAJ	6 3	8cJ	.	.	[8ffJ
=15	=15	=15	=15	=15	=15
8BB-L	6 5	8.B-L	4d	2g	8ffL]
8GGJ	.	.	.	.	16ggL
.	.	16AJk	.	.	16aaJJ
4C	.	4G	4c	.	4ee
4FF;	.	4A;	4c;	4f;	4ff;
=||	=||	=||	=||	=||	=||
*-	*-	*-	*-	*-	*-
!!!system-decoration: s1,s2,s3,s4,s5
